remix/System/forbid-line.svg

<svg viewBox="0 0 24 24" fill="currentColor" xmlns="http://www.w3.org/2000/svg"><path d="M12 22C6.47715 22 2 17.5228 2 12C2 6.47715 6.47715 2 12 2C17.5228 2 22 6.47715 22 12C22 17.5228 17.5228 22 12 22ZM12 20C16.4183 20 20 16.4183 20 12C20 7.58172 16.4183 4 12 4C7.58172 4 4 7.58172 4 12C4 16.4183 7.58172 20 12 20ZM8.52313 7.10891L16.8911 15.4769C16.6997 15.7454 16.4836 16.0017 16.2426 16.2426C16.0017 16.4836 15.7454 16.6997 15.4769 16.8911L7.10891 8.52313C7.30029 8.25459 7.51644 7.99828 7.75736 7.75736C7.99828 7.51644 8.25459 7.30029 8.52313 7.10891Z"/></svg>

<svg viewBox="0 0 24 24" xmlns="http://www.w3.org/2000/svg"><path fill="none" d="M0 0h24v24H0Z"/><path d="M12 22C6.477 22 2 17.523 2 12 2 6.477 6.477 2 12 2c5.523 0 10 4.477 10 10s-4.477 10-10 10Zm0-2v0c4.41 0 8-3.59 8-8 0-4.42-3.59-8-8-8v0c-4.42 0-8 3.58-8 8 0 4.41 3.58 8 8 8ZM8.52 7.109l8.36 8.368v0c-.39.54-.87 1.02-1.42 1.41L7.09 8.51l0-.001c.38-.55.86-1.03 1.41-1.42Z"/></svg>
